X: 74
T: Cherish The Ladies
N: Cape Breton setting
M: 6/8
L: 1/8
Q: 3/8=126
R: jig
K: D
dFF AFF|dFF A^GA|BEE =cEE|cEE ABc|
dfd cde|dcd A^GA|Bcd e/f/ge|fdc d2A:|
|:Add fed|afd fed|B2g gfg|ecA gfg|
afd bge|afd g2g|fdB AGF|[1 BEF GFE:|[2 BEF GAB|
|:[F3-A3-] [FA]GF|AGF dcB|[F3-A3-] [FA]GF|GA,B, CDE|
DFA EGB|DFA d2g|fdB AGF|BEF GAF:|
